images/sponsor_statamic.svg

<svg width="182" height="51" viewBox="0 0 182 51" fill="none" xmlns="http://www.w3.org/2000/svg">
<g clip-path="url(#clip0)">
<path fill-rule="evenodd" clip-rule="evenodd" d="M47.2769 33.6769C47.2769 36.1199 46.4269 37.1189 44.1119 37.1189H23.5699C21.2539 37.1189 20.4049 36.1199 20.4049 33.6769V28.9199C20.4049 26.6259 19.2999 25.3299 18.2379 24.7359C18.1648 24.6916 18.1044 24.6293 18.0625 24.5548C18.0206 24.4804 17.9985 24.3964 17.9985 24.3109C17.9985 24.2255 18.0206 24.1415 18.0625 24.0671C18.1044 23.9926 18.1648 23.9302 18.2379 23.8859C19.3429 23.1849 20.4049 21.7189 20.4049 19.7649V15.0899C20.4049 12.4559 21.1269 11.6899 23.4419 11.6899H44.2399C46.5559 11.6899 47.2779 12.4559 47.2779 15.0899V19.7629C47.2779 21.7169 48.3399 23.1829 49.4439 23.8829C49.7639 24.0959 49.7639 24.5429 49.4439 24.7329C48.3819 25.3489 47.2779 26.6449 47.2779 28.9179V33.6759L47.2769 33.6769ZM27.8189 30.5549C29.4969 32.0199 31.3029 32.7639 33.7889 32.7639C37.6969 32.7639 40.2459 30.8099 40.2459 27.6439C40.2459 24.2919 37.2099 23.4369 34.7409 22.7419C33.0479 22.2649 31.6209 21.8629 31.6209 20.7829C31.6209 20.0829 32.3649 19.4029 33.6179 19.4029C34.8289 19.4029 35.8279 19.6579 36.7829 20.1459C37.1019 20.2949 37.3989 20.4009 37.6749 20.4009C38.0789 20.4009 38.3979 20.2099 38.6739 19.8279L39.0559 19.2539C39.2049 19.0419 39.2689 18.8079 39.2689 18.5539C39.2689 18.1279 39.0559 17.7039 38.7379 17.4909C37.4629 16.6839 35.7419 16.0039 33.4059 16.0039C30.0919 16.0039 27.5429 17.7459 27.5429 20.8679C27.5429 24.3589 30.6449 25.2449 33.1289 25.9529C34.7859 26.4259 36.1669 26.8199 36.1669 27.8569C36.1669 28.8549 35.2329 29.3439 34.0639 29.3439C32.6602 29.3573 31.2846 28.9505 30.1139 28.1759C29.7519 27.9419 29.4119 27.7929 29.0509 27.7929C28.7319 27.7929 28.4559 27.9419 28.2009 28.2609L27.6909 28.9189C27.5009 29.1319 27.4369 29.4079 27.4369 29.6629C27.4369 29.9809 27.5429 30.2999 27.8189 30.5549V30.5549ZM59.5549 28.5999C59.2789 28.5999 59.0449 28.7069 58.8329 28.9829L58.4079 29.5779C58.2379 29.7679 58.1949 30.0019 58.1949 30.2149C58.1949 30.4909 58.3009 30.7669 58.5349 30.9799C59.9369 32.1899 61.4669 32.8279 63.5699 32.8279C66.8619 32.8279 69.0289 31.1709 69.0289 28.5149C69.0289 25.6909 66.4609 24.9699 64.3749 24.3839C62.9459 23.9819 61.7429 23.6439 61.7429 22.7379C61.7429 22.1219 62.3799 21.5689 63.4209 21.5689C64.3442 21.5657 65.2548 21.7845 66.0759 22.2069L66.1399 22.2309C66.3919 22.3289 66.6249 22.4189 66.8399 22.4189C67.1599 22.4189 67.4359 22.2699 67.6699 21.9299L68.0099 21.4419C68.1246 21.2572 68.1837 21.0434 68.1799 20.8259C68.1799 20.4649 68.0099 20.1039 67.7329 19.9339C66.6499 19.2109 65.2049 18.6589 63.2299 18.6589C60.4469 18.6589 58.2799 20.1459 58.2799 22.7799C58.2799 25.7069 60.8949 26.4539 62.9919 27.0519C64.3949 27.4519 65.5659 27.7869 65.5659 28.6639C65.5659 29.5349 64.7799 29.9389 63.7819 29.9389C62.4859 29.9389 61.4019 29.5779 60.4469 28.9399C60.1709 28.7279 59.8309 28.5999 59.5549 28.5999V28.5999ZM79.8409 30.8949C79.8443 30.7137 79.7923 30.5358 79.6919 30.3849L79.4159 29.9389C79.1609 29.4929 78.8639 29.3229 78.4809 29.3229C78.2909 29.3229 78.0779 29.3649 77.8009 29.4709C77.5259 29.5779 77.2069 29.6199 76.8459 29.6199C75.7199 29.6199 75.2309 28.6429 75.2309 27.1769V22.2499H78.4809C79.0969 22.2499 79.6069 21.7399 79.6069 21.1239V20.1039C79.6069 19.4889 79.0969 18.9789 78.4809 18.9789H75.2309V16.3449C75.2309 15.7289 74.7209 15.2189 74.1059 15.2189H72.8949C72.2789 15.2189 71.7689 15.7289 71.7689 16.3449V27.3049C71.7689 30.7679 72.9159 32.7439 75.9539 32.7439C77.2919 32.7439 78.3119 32.4679 79.3309 31.8509C79.6709 31.6809 79.8409 31.2779 79.8409 30.8959V30.8949ZM86.7229 24.1399C83.9829 24.1399 81.7949 25.5419 81.7949 28.5149C81.7949 31.1279 83.5579 32.6579 85.9589 32.6789C87.7849 32.6789 89.2289 31.9779 89.9519 30.9589V31.4039C89.9519 32.0199 90.4619 32.5299 91.0779 32.5299H91.8639C92.4799 32.5299 92.9899 32.0199 92.9899 31.4039V24.3099C92.9899 20.7419 91.6089 18.7029 87.6159 18.7029C86.2349 18.7029 84.8959 19.0629 83.7279 19.5949C83.3679 19.7649 83.0909 20.1679 83.0909 20.5509C83.096 20.6733 83.1238 20.7937 83.1729 20.9059C83.1889 20.9509 83.2059 20.9959 83.2179 21.0389L83.3879 21.3999C83.6009 21.8249 83.9619 22.0379 84.4079 22.0379C84.5419 22.0379 84.6889 21.9979 84.8289 21.9599L84.9389 21.9309C85.5759 21.7189 86.2349 21.5709 87.2539 21.5709C89.1239 21.5709 89.7609 22.6319 89.7609 24.6079V25.0119C89.1019 24.5229 87.9129 24.1409 86.7229 24.1409V24.1399ZM87.4029 26.4549C88.3799 26.4549 89.1449 26.6669 89.7609 27.1139H89.7819V28.5149C89.3569 29.0889 88.6139 29.7259 87.1689 29.7259C86.0649 29.7259 85.2359 29.1529 85.2359 28.1329C85.2359 26.9859 86.2559 26.4549 87.4029 26.4549V26.4549ZM104.312 30.8949C104.315 30.7137 104.263 30.5358 104.163 30.3849L103.887 29.9389C103.632 29.4929 103.335 29.3229 102.952 29.3229C102.762 29.3229 102.549 29.3649 102.272 29.4709C101.996 29.5779 101.678 29.6199 101.317 29.6199C100.191 29.6199 99.7019 28.6429 99.7019 27.1769V22.2499H102.952C103.568 22.2499 104.078 21.7399 104.078 21.1239V20.1039C104.078 19.4889 103.568 18.9789 102.952 18.9789H99.7019V16.3449C99.7019 15.7289 99.1919 15.2189 98.5759 15.2189H97.3659C96.7499 15.2189 96.2399 15.7289 96.2399 16.3449V27.3049C96.2399 30.7679 97.3869 32.7439 100.424 32.7439C101.763 32.7439 102.782 32.4679 103.802 31.8509C104.142 31.6809 104.312 31.2779 104.312 30.8959V30.8949ZM111.194 24.1399C108.454 24.1399 106.266 25.5419 106.266 28.5149C106.266 31.1279 108.05 32.6579 110.429 32.6789C112.256 32.6789 113.701 31.9779 114.423 30.9589V31.4039C114.423 32.0199 114.933 32.5299 115.549 32.5299H116.335C116.951 32.5299 117.461 32.0199 117.461 31.4039V24.3099C117.461 20.7419 116.08 18.7029 112.086 18.7029C110.706 18.7029 109.367 19.0629 108.199 19.5949C107.838 19.7649 107.562 20.1679 107.562 20.5509C107.567 20.6733 107.595 20.7937 107.644 20.9059C107.66 20.9509 107.677 20.9959 107.689 21.0389L107.859 21.3999C108.072 21.8249 108.433 22.0379 108.879 22.0379C109.013 22.0379 109.16 21.9979 109.299 21.9599L109.409 21.9309C110.047 21.7189 110.706 21.5709 111.725 21.5709C113.595 21.5709 114.232 22.6319 114.232 24.6079V25.0119C113.573 24.5229 112.384 24.1409 111.194 24.1409V24.1399ZM111.874 26.4549C112.851 26.4549 113.616 26.6669 114.232 27.1139H114.253V28.5149C113.828 29.0889 113.085 29.7259 111.64 29.7259C110.536 29.7259 109.707 29.1529 109.707 28.1329C109.707 26.9859 110.727 26.4549 111.874 26.4549V26.4549ZM128.676 18.7449C127.019 18.7449 125.426 19.4029 124.47 20.4649H124.407V20.0819C124.407 19.4659 123.897 18.9559 123.281 18.9559H122.07C121.454 18.9559 120.944 19.4659 120.944 20.0819V31.3619C120.944 31.9779 121.454 32.4879 122.07 32.4879H123.281C123.897 32.4879 124.407 31.9779 124.407 31.3619V23.4169C125.023 22.5039 126.021 21.9729 127.232 21.9729C128.676 21.9729 129.462 22.8859 129.462 24.3099V31.3199C129.462 31.9349 129.972 32.4449 130.588 32.4449H131.799C132.415 32.4449 132.925 31.9349 132.925 31.3189V24.5009C132.925 24.3249 132.918 24.1049 132.913 23.9069C132.908 23.7449 132.903 23.5969 132.903 23.5019C133.371 22.5889 134.39 21.9519 135.686 21.9519C137.322 21.9519 138.002 22.8649 138.002 24.5429V31.3619C138.002 31.9779 138.511 32.4879 139.127 32.4879H140.338C140.954 32.4879 141.464 31.9779 141.464 31.3619V23.6719C141.464 19.9549 139.616 18.7439 137.152 18.7439C135.07 18.7439 133.562 19.6359 132.606 20.9109C132.118 19.6789 130.737 18.7439 128.676 18.7439V18.7449ZM147.284 16.2799C148.261 16.2799 149.26 15.4939 149.26 14.1129C149.26 12.9029 148.261 12.1169 147.284 12.1169C146.116 12.1169 145.118 12.9029 145.118 14.1129C145.118 15.4939 146.116 16.2799 147.284 16.2799ZM148.941 20.1039C148.941 19.4879 148.431 18.9779 147.815 18.9779V18.9559H146.605C145.989 18.9559 145.479 19.4659 145.479 20.0819V31.3619C145.479 31.9779 145.989 32.4879 146.605 32.4879H147.815C148.431 32.4879 148.941 31.9779 148.941 31.3619V20.1039V20.1039ZM159.881 21.8879C160.752 21.8879 161.453 22.0369 162.26 22.4189C162.403 22.4989 162.558 22.5299 162.698 22.5589L162.833 22.5889C163.237 22.5889 163.619 22.3339 163.853 21.9519L164.299 21.1659C164.405 21.0169 164.427 20.8469 164.427 20.6769C164.427 20.2949 164.235 19.8489 163.896 19.6789C162.579 18.9559 161.262 18.6589 159.456 18.6589C155.335 18.6589 152.467 21.8029 152.467 25.7329C152.467 29.9809 155.42 32.8059 159.881 32.8059C161.559 32.8059 162.982 32.5089 164.597 31.2129C164.851 31.0219 165 30.6179 165 30.2569C165 30.0239 164.936 29.7899 164.788 29.6409L164.278 29.0039C164.165 28.8643 164.023 28.7518 163.861 28.6746C163.699 28.5974 163.522 28.5575 163.343 28.5579C163.11 28.5579 162.855 28.6429 162.621 28.7919C161.835 29.3019 161.07 29.5779 160.008 29.5779C157.969 29.5779 156.121 28.0909 156.121 25.7119C156.121 23.3539 157.948 21.8879 159.881 21.8879V21.8879Z" fill="#9FA6B2"/>
</g>
<defs>
<clipPath id="clip0">
<rect width="147" height="48" fill="white" transform="translate(18)"/>
</clipPath>
</defs>
</svg>

<svg xmlns="http://www.w3.org/2000/svg" width="182" height="51" fill="none"  xmlns:v="https://vecta.io/nano"><g clip-path="url(#A)"><path fill-rule="evenodd" d="M47.277 33.677c0 2.443-.85 3.442-3.165 3.442H23.57c-2.316 0-3.165-1-3.165-3.442V28.92c0-2.294-1.105-3.6-2.167-4.184-.073-.044-.134-.107-.175-.18S18 24.396 18 24.31s.022-.17.064-.244.102-.137.175-.18c1.105-.7 2.167-2.167 2.167-4.12V15.1c0-2.634.722-3.4 3.037-3.4H44.24c2.316 0 3.038.766 3.038 3.4v4.673c0 1.954 1.062 3.42 2.166 4.12.32.213.32.66 0 .85-1.062.616-2.166 1.912-2.166 4.185l-.001 4.76zM27.82 30.555c1.678 1.465 3.484 2.21 5.97 2.21 3.908 0 6.457-1.954 6.457-5.12 0-3.352-3.036-4.207-5.505-4.902-1.693-.477-3.12-.88-3.12-1.96 0-.7.744-1.38 1.997-1.38 1.21 0 2.2.255 3.165.743.32.15.616.255.892.255.404 0 .723-.19 1-.573l.382-.574c.15-.212.213-.446.213-.7 0-.426-.213-.85-.53-1.063-1.275-.807-2.996-1.487-5.332-1.487-3.314 0-5.863 1.742-5.863 4.864 0 3.49 3.102 4.377 5.586 5.085 1.657.473 3.038.867 3.038 1.904 0 .998-.934 1.487-2.103 1.487-1.404.013-2.78-.393-3.95-1.168-.362-.234-.702-.383-1.063-.383-.32 0-.595.15-.85.468l-.5.658c-.2.213-.254.49-.254.744 0 .318.106.637.382.892h0zM59.555 28.6c-.276 0-.5.107-.722.383l-.425.595c-.17.2-.213.424-.213.637a1.02 1.02 0 0 0 .34.765c1.402 1.2 2.932 1.848 5.035 1.848 3.292 0 5.46-1.657 5.46-4.313 0-2.824-2.568-3.545-4.654-4.13-1.43-.402-2.632-.74-2.632-1.646 0-.616.637-1.17 1.678-1.17a5.76 5.76 0 0 1 2.655.638l.064.024c.252.098.485.188.7.188.32 0 .596-.15.83-.49l.34-.488a1.13 1.13 0 0 0 .17-.616c0-.36-.17-.722-.447-.892-1.083-.723-2.528-1.275-4.503-1.275-2.783 0-4.95 1.487-4.95 4.12 0 2.927 2.615 3.674 4.712 4.272 1.403.4 2.574.735 2.574 1.612 0 .87-.786 1.275-1.784 1.275-1.296 0-2.38-.36-3.335-1-.276-.212-.616-.34-.892-.34h0zm20.286 2.295a.89.89 0 0 0-.149-.51l-.276-.446c-.255-.446-.552-.616-.935-.616-.2 0-.403.042-.68.148s-.594.15-.955.15c-1.126 0-1.615-.977-1.615-2.443V22.25h3.25c.616 0 1.126-.5 1.126-1.126v-1.02c0-.615-.5-1.125-1.126-1.125h-3.25v-2.634c0-.616-.5-1.126-1.125-1.126h-1.21c-.616 0-1.126.5-1.126 1.126v10.96c0 3.463 1.147 5.44 4.185 5.44 1.338 0 2.358-.276 3.377-.893.34-.17.5-.573.5-.955v-.001zm6.882-6.755c-2.74 0-4.928 1.402-4.928 4.375 0 2.613 1.763 4.143 4.164 4.164 1.826 0 3.27-.7 3.993-1.72v.445c0 .616.5 1.126 1.126 1.126h.786c.616 0 1.126-.5 1.126-1.126V24.3c0-3.568-1.38-5.607-5.374-5.607-1.38 0-2.72.36-3.888.892-.36.17-.637.573-.637.956a.99.99 0 0 0 .082.355l.045.133.17.36c.213.425.574.638 1.02.638.134 0 .28-.04.42-.078l.1-.03c.637-.212 1.296-.36 2.315-.36 1.87 0 2.507 1.06 2.507 3.037v.404c-.66-.49-1.848-.87-3.038-.87h0zm.68 2.315c.977 0 1.742.212 2.358.66h.02v1.4c-.425.574-1.168 1.21-2.613 1.21-1.104 0-1.933-.573-1.933-1.593 0-1.147 1.02-1.678 2.167-1.678h0zm16.91 4.44c.003-.18-.05-.36-.15-.5l-.276-.446c-.255-.446-.552-.616-.935-.616-.2 0-.403.042-.68.148s-.594.15-.955.15c-1.126 0-1.615-.977-1.615-2.443V22.25h3.25c.616 0 1.126-.5 1.126-1.126v-1.02c0-.615-.5-1.125-1.126-1.125h-3.25v-2.634c0-.616-.5-1.126-1.126-1.126h-1.2c-.616 0-1.126.5-1.126 1.126v10.96c0 3.463 1.147 5.44 4.184 5.44 1.34 0 2.358-.276 3.378-.893.34-.17.5-.573.5-.955v-.001zm6.882-6.755c-2.74 0-4.928 1.402-4.928 4.375 0 2.613 1.784 4.143 4.163 4.164 1.827 0 3.272-.7 3.994-1.72v.445c0 .616.5 1.126 1.126 1.126h.786c.616 0 1.126-.5 1.126-1.126V24.3c0-3.568-1.38-5.607-5.375-5.607-1.38 0-2.72.36-3.887.892-.36.17-.637.573-.637.956a.99.99 0 0 0 .082.355l.045.133.17.36c.213.425.574.638 1.02.638.134 0 .28-.04.42-.078l.1-.03a6.8 6.8 0 0 1 2.316-.36c1.87 0 2.507 1.06 2.507 3.037v.404c-.66-.49-1.848-.87-3.038-.87h0zm.68 2.315c.977 0 1.742.212 2.358.66h.02v1.4c-.425.574-1.168 1.21-2.613 1.21-1.104 0-1.933-.573-1.933-1.593 0-1.147 1.02-1.678 2.167-1.678h0zm16.802-7.7c-1.657 0-3.25.658-4.206 1.72h-.063v-.383c0-.616-.5-1.126-1.126-1.126h-1.21c-.616 0-1.126.5-1.126 1.126v11.28c0 .616.5 1.126 1.126 1.126h1.21c.616 0 1.126-.5 1.126-1.126v-7.945c.616-.913 1.614-1.444 2.825-1.444 1.444 0 2.23.913 2.23 2.337v7c0 .615.5 1.125 1.126 1.125h1.21c.616 0 1.126-.5 1.126-1.126V24.5l-.012-.594-.01-.405c.468-.913 1.487-1.55 2.783-1.55 1.636 0 2.316.913 2.316 2.59v6.82c0 .616.51 1.126 1.125 1.126h1.21c.616 0 1.126-.5 1.126-1.126v-7.7c0-3.717-1.848-4.928-4.312-4.928-2.082 0-3.6.892-4.546 2.167-.488-1.232-1.87-2.167-3.93-2.167v.001zm18.608-2.465c.977 0 1.976-.786 1.976-2.167 0-1.2-1-1.996-1.976-1.996-1.168 0-2.166.786-2.166 1.996 0 1.38.998 2.167 2.166 2.167zm1.657 3.824c0-.616-.5-1.126-1.126-1.126v-.022h-1.2c-.616 0-1.126.5-1.126 1.126v11.28c0 .616.5 1.126 1.126 1.126h1.2c.616 0 1.126-.5 1.126-1.126V20.104zm10.94 1.784a5.19 5.19 0 0 1 2.379.531c.143.08.298.11.438.14l.135.03c.404 0 .786-.255 1.02-.637l.446-.786c.106-.15.128-.32.128-.49 0-.382-.192-.828-.53-.998-1.317-.723-2.634-1.02-4.44-1.02-4.12 0-6.99 3.144-6.99 7.074 0 4.248 2.953 7.073 7.414 7.073 1.678 0 3.1-.297 4.716-1.593.254-.19.403-.595.403-.956 0-.233-.064-.467-.212-.616l-.5-.637a1.2 1.2 0 0 0-.935-.446c-.233 0-.488.085-.722.234a4.47 4.47 0 0 1-2.613.786c-2.04 0-3.887-1.487-3.887-3.866 0-2.358 1.827-3.824 3.76-3.824h0z" fill="#9fa6b2"/></g><defs><clipPath id="A"><path fill="#fff" transform="translate(18)" d="M0 0h147v48H0z"/></clipPath></defs></svg>
